public/img/clients/postmedia.svg

<svg width="200" height="100" viewBox="0 0 200 100" fill="none" xmlns="http://www.w3.org/2000/svg">
<path d="M62.3033 14V86H93.8539V77.1011H93.7326V64.8854H102.672C112.258 64.8854 118.002 58.2921 118.002 50.4045C118.002 42.5169 112.258 35.9236 102.672 35.9236H84.6719V77.1011H71.2022V22.8989H127.831V77.1011H107.607L100.245 86H136.73V14H62.3033ZM93.7326 44.0135H102.186C106.312 44.0135 108.901 46.6022 108.901 50.4045C108.901 54.1663 106.312 56.7146 102.186 56.7146H93.7326V44.0135Z" fill="black"/>
</svg>

<svg xmlns="http://www.w3.org/2000/svg" focusable="false" role="img" viewBox="0 0 200 100" fill="currentColor">
  <path d="M62.303 14v72h31.55v-8.899h-.12V64.885h8.939c9.586 0 15.33-6.593 15.33-14.48 0-7.888-5.744-14.481-15.33-14.481h-18V77.1h-13.47V22.9h56.629V77.1h-20.224L100.245 86h36.485V14H62.303zm31.43 30.014h8.453c4.126 0 6.715 2.588 6.715 6.39 0 3.762-2.589 6.31-6.715 6.31h-8.454v-12.7z"/>
</svg>
